public/img/quarter-icon-2.svg

<svg width="55" height="55" viewBox="0 0 55 55" fill="none" xmlns="http://www.w3.org/2000/svg">
<g clip-path="url(#clip0)">
<path d="M53.3507 45.8684L53.3211 45.8431L53.3549 45.8051L52.5988 45.1673L47.3236 40.2848C47.3236 40.2848 47.2348 40.3819 47.0828 40.5298L46.9435 40.6818C45.744 41.8053 41.9004 45.0448 37.3896 45.1039C37.2925 45.1039 37.1954 45.1039 37.0982 45.1039C34.7246 44.8463 32.41 43.5708 30.0616 41.2098C26.1633 37.2903 21.8341 35.1658 17.1671 34.8744C17.0361 34.8744 16.9094 34.8744 16.7784 34.8744C16.0763 34.8121 15.371 34.7938 14.6666 34.8195C7.64276 35.1067 2.41819 39.8202 0.648499 41.6364C0.276821 41.9869 0.0487343 42.2277 0.0022746 42.2783L0.027641 42.3037L-0.00195312 42.3375L0.754089 42.9752L6.00823 47.8577C6.00823 47.8577 6.10118 47.7606 6.25323 47.617L6.39264 47.4649C7.59215 46.3457 11.4356 43.1062 15.9464 43.0428C16.0435 43.0428 16.1406 43.0428 16.2336 43.0428C18.6115 43.3047 20.9261 44.576 23.2744 46.937C27.1728 50.8565 31.502 52.981 36.1691 53.2724C36.2958 53.2724 36.4267 53.2724 36.5576 53.2724C37.2597 53.3347 37.965 53.3531 38.6694 53.3273C45.6933 53.0401 50.9178 48.3308 52.6875 46.5146C53.055 46.1641 53.2873 45.9191 53.3337 45.8726" fill="#FFD100"/>
<path d="M49.8876 15.5809C49.7651 15.4204 48.4474 13.7479 46.6016 13.4691L44.1984 11.0659L40.8196 0.506894C40.7713 0.35134 40.6701 0.217586 40.5335 0.128858C40.3969 0.0401303 40.2337 0.00203208 40.072 0.0211789H40.0001C39.817 0.0232783 39.6418 0.0960969 39.5111 0.224405C39.3805 0.352714 39.3045 0.526574 39.299 0.709627V12.9581H31.6965V0.709627C31.6965 0.521438 31.6218 0.340957 31.4887 0.207888C31.3557 0.0748186 31.1752 6.10352e-05 30.987 6.10352e-05C30.7988 6.10352e-05 30.6183 0.0748186 30.4852 0.207888C30.3522 0.340957 30.2773 0.521438 30.2773 0.709627V22.571C30.2773 22.571 30.2773 22.5963 30.2773 22.609C30.2794 22.6188 30.2794 22.6288 30.2773 22.6386C30.277 22.9476 30.294 23.2564 30.3281 23.5636C30.4759 26.1822 31.0334 33.7467 32.5243 37.1044C32.5793 37.23 32.6697 37.3369 32.7845 37.4119C32.8993 37.4869 33.0335 37.5268 33.1706 37.5268H37.8165C37.9538 37.5274 38.0881 37.4876 38.203 37.4126C38.3179 37.3375 38.4082 37.2303 38.4627 37.1044C38.6601 36.6526 38.828 36.1884 38.9653 35.7149L39.9959 37.2185C40.0612 37.3138 40.1489 37.3917 40.2512 37.4454C40.3535 37.4992 40.4674 37.5271 40.583 37.5268H43.2016C43.3902 37.5268 43.5711 37.4522 43.7048 37.3192C43.8386 37.1863 43.9143 37.0058 43.9154 36.8172C43.9154 29.3921 48.1095 22.2965 49.9088 19.5934C50.3257 19.0022 50.547 18.2953 50.5417 17.5718C50.5364 16.8484 50.3047 16.1448 49.8792 15.5598L49.8876 15.5809ZM31.6965 22.6301V21.2448H31.7303L35.5316 18.1193L39.299 21.211V22.5921C39.2969 22.6061 39.2969 22.6204 39.299 22.6344C39.2969 22.6498 39.2969 22.6654 39.299 22.6808V22.7442C39.299 22.8371 39.2779 23.0905 39.2567 23.4749C38.9906 26.1315 37.4068 28.18 35.4935 28.18C33.5802 28.18 32.026 26.1653 31.7346 23.534C31.705 22.9849 31.6881 22.6555 31.6881 22.6386L31.6965 22.6301ZM39.2906 15.0361V19.3864L36.6508 17.1817L39.2906 15.0361ZM40.7097 13.9886L43.4593 12.3499L45.0051 13.8999C43.907 14.6813 42.7835 16.3116 41.9345 17.7603C41.5122 18.4445 41.0899 19.247 40.7097 20.096V13.9886ZM42.7202 11.1377L40.7097 12.333V4.81919L42.7202 11.1377ZM37.7996 14.4237L35.5231 16.2905L33.2466 14.4237H37.7996ZM34.4207 17.2113L31.6965 19.416V14.9474L34.4207 17.2113Z" fill="#FFD100"/>
</g>
<defs>
<clipPath id="clip0">
<rect width="54.0621" height="54.0621" fill="white"/>
</clipPath>
</defs>
</svg>

<svg width="55" height="55" fill="none" xmlns="http://www.w3.org/2000/svg"><g clip-path="url(#clip0)" fill="#FFD100"><path d="M53.35 45.868l-.029-.025.034-.038-.756-.638-5.275-4.882s-.09.097-.241.245l-.14.152c-1.199 1.123-5.043 4.363-9.553 4.422h-.292c-2.373-.258-4.688-1.533-7.036-3.894-3.899-3.92-8.228-6.044-12.895-6.336h-.389a16.915 16.915 0 00-2.111-.055C7.643 35.107 2.418 39.82.648 41.636c-.371.35-.6.592-.646.642l.026.026-.03.033.756.638 5.254 4.883s.093-.097.245-.241l.14-.152c1.2-1.12 5.043-4.359 9.553-4.422h.288c2.377.262 4.692 1.533 7.04 3.894 3.899 3.92 8.228 6.044 12.895 6.335h.389c.702.063 1.407.081 2.111.055 7.024-.287 12.249-4.996 14.019-6.812.367-.35.6-.596.646-.642M49.888 15.58c-.123-.16-1.44-1.832-3.286-2.11l-2.404-2.404L40.82.506a.697.697 0 00-.748-.485H40a.71.71 0 00-.7.689v12.248h-7.602V.71a.71.71 0 10-1.42 0v21.899a8.311 8.311 0 00.05.955c.149 2.618.706 10.183 2.197 13.54a.705.705 0 00.647.423h4.645a.701.701 0 00.647-.423c.197-.451.365-.916.502-1.39l1.03 1.505a.709.709 0 00.588.308h2.619a.713.713 0 00.713-.71c0-7.425 4.194-14.52 5.994-17.224a3.464 3.464 0 00-.03-4.033l.009.02zm-18.191 7.05v-1.385h.033l3.802-3.126 3.767 3.092v1.381a.143.143 0 000 .042.172.172 0 000 .047v.063c0 .093-.021.346-.042.73-.266 2.657-1.85 4.706-3.764 4.706-1.913 0-3.467-2.015-3.758-4.646-.03-.55-.047-.878-.047-.895l.009-.009zm7.594-7.594v4.35l-2.64-2.204 2.64-2.146zm1.419-1.047l2.75-1.64 1.545 1.55c-1.098.782-2.222 2.413-3.07 3.861a20.366 20.366 0 00-1.225 2.336v-6.107zm2.01-2.851l-2.01 1.195V4.819l2.01 6.319zm-4.92 3.286l-2.277 1.867-2.276-1.867H37.8zm-3.38 2.787l-2.724 2.205v-4.469l2.725 2.264z"/></g><defs><clipPath id="clip0"><path fill="#fff" d="M0 0h54.062v54.062H0z"/></clipPath></defs></svg>
